assets/courses/logos/agile.svg

<?xml version="1.0" encoding="UTF-8"?>
<svg width="86px" height="70px" viewBox="0 0 86 70" version="1.1" xmlns="http://www.w3.org/2000/svg" xmlns:xlink="http://www.w3.org/1999/xlink">
    <title>Group</title>
    <defs>
        <path d="M36.1718769,0.164887473 C35.6694654,0.512495135 35.3321409,1.08504582 35.3097579,1.74255185 C35.2834186,2.51627407 35.7001845,3.20228523 36.3319448,3.55639641 C32.9722493,3.94599544 29.7025426,5.01275289 26.7260289,6.71542074 C21.8803682,9.48735574 18.0835896,13.789118 15.9268449,18.9513499 C13.7702932,24.1132218 13.374504,29.8457003 14.8011239,35.2566761 C16.2279314,40.6679761 19.3971557,45.4540832 23.8154684,48.8700562 C28.2343259,52.2865524 33.6546437,54.1409201 39.233,54.1447971 L79.2683306,54.1447971 L70.6802647,45.525656 C70.5246091,45.3694607 70.4011394,45.1838707 70.3168762,44.9797272 C70.2325387,44.7754035 70.1891,44.5564187 70.1891,44.3351971 C70.1891,44.1140599 70.2325416,43.8950835 70.3169017,43.6907055 C70.401175,43.48646 70.5246796,43.3009397 70.6802644,43.1447384 C70.8358199,42.9886438 71.0203967,42.8648743 71.2236225,42.7803958 C71.426669,42.6959919 71.6442543,42.6524971 71.864,42.6524971 C72.0837154,42.6524971 72.3012728,42.6959773 72.5042775,42.7803958 C72.707464,42.864858 72.8920975,42.988584 73.0471069,43.1442071 L84.4813921,54.6525686 C84.6578103,54.8061682 84.783132,54.991225 84.8687622,55.1955021 C84.9554561,55.4020556 85,55.6239629 85,55.8480971 C85,56.0722312 84.9554561,56.2941385 84.8686751,56.5008998 C84.7821059,56.707417 84.6553093,56.8944407 84.4923138,57.0544765 L73.0475482,68.5078434 C72.8921366,68.6638708 72.707566,68.7876708 72.5042154,68.8721241 C72.3012728,68.9565168 72.0837154,69 71.864,69 C71.6442543,69 71.426669,68.9565022 71.2234733,68.8720363 C71.0202948,68.7876545 70.8357807,68.663811 70.6803518,68.5078434 C70.5246685,68.3515433 70.4011555,68.1660098 70.3168762,67.9618272 C70.2325387,67.7575035 70.1891,67.5384415 70.1891,67.3172971 C70.1891,67.0961526 70.2325387,66.8770906 70.3168762,66.6727669 C70.4011555,66.4685843 70.5246685,66.2830508 70.680289,66.1268137 L79.2683415,57.5077971 L39.2331789,57.5077971 C32.9141001,57.5055366 26.7731405,55.4064759 21.7662306,51.5374598 C16.7587804,47.667928 13.1667315,42.2454381 11.5491584,36.1141513 C9.93151708,29.9825309 10.3792181,23.4861298 12.8227683,17.6364126 C15.2660251,11.7871627 19.5676352,6.91278085 25.0581592,3.77221018 C28.3520987,1.88804903 31.9630122,0.691418606 35.6766879,0.223718087 Z M19.0627,54.1447971 C19.5063821,54.1447971 19.9318294,54.3217777 20.2454978,54.6366005 C20.5598504,54.9521099 20.7364,55.3801012 20.7364,55.8262971 C20.7364,56.2724097 20.5598444,56.7003902 20.2454978,57.0158936 C19.971038,57.2913635 19.6110021,57.4613747 19.2280451,57.4995732 L19.0627,57.5077971 L1.67364,57.5077971 C1.22995117,57.5077971 0.804530119,57.3307044 0.490829999,57.0158784 C0.176460472,56.7003791 0,56.2723982 0,55.8262971 C0,55.3801127 0.176454426,54.9521211 0.490829133,54.6366166 C0.765317496,54.3611431 1.12534622,54.1911989 1.50829727,54.1530171 L1.67364,54.1447971 L19.0627,54.1447971 Z M43.1775851,0.27249002 C49.4369207,1.14352609 55.2335814,4.06726215 59.6652286,8.58829706 C64.0972739,13.1098876 66.9153469,18.9752792 67.6807544,25.2713384 C68.4461819,31.5674631 67.1158979,37.9409621 63.8985281,43.3969596 C63.6631439,43.7907432 63.4205739,44.1772424 63.1660446,44.5642014 C63.04696,44.7524568 62.8916915,44.9150828 62.7092872,45.0424885 C62.52705,45.1697775 62.3214225,45.2593707 62.1042857,45.3060924 C61.8874331,45.3527696 61.6634281,45.3557101 61.4452524,45.3145377 C61.2270959,45.2734457 61.0192602,45.189165 60.8337695,45.0665564 C60.6482475,44.9439533 60.4889323,44.7854426 60.3649657,44.6001096 C60.2408871,44.4148015 60.1548495,44.2065051 60.1118262,43.9875333 C60.0687752,43.7683439 60.0696191,43.5428276 60.1143944,43.3238143 C60.1590489,43.1050921 60.2466499,42.8974699 60.3750554,42.7086006 C60.5971083,42.3743978 60.8117089,42.0327411 61.0197881,41.6822112 C63.8584548,36.8642607 65.0305309,31.2395663 64.3534275,25.6837075 C63.676304,20.1277857 61.1879573,14.9523025 57.2758946,10.9629187 C53.3632414,6.97296533 48.2461087,4.39321523 42.7209582,3.62500121 C42.4829579,3.59190933 42.2447756,3.56225872 42.0064814,3.53603587 C42.4792901,3.18627727 42.7932744,2.63159939 42.8148421,1.99804226 C42.843471,1.15706385 42.3486122,0.4197079 41.6231832,0.0995377674 C42.141126,0.142749142 42.6597363,0.200427254 43.1775851,0.27249002 Z" id="path-1"></path>
    </defs>
    <g id="Page-1" stroke="none" stroke-width="1" fill="none" fill-rule="evenodd">
        <g id="agile" transform="translate(-25.000000, -36.000000)">
            <g id="Group" transform="translate(25.000000, 36.000000)">
                <g id="Path" transform="translate(0.500000, 0.500003)">
                    <mask id="mask-2" fill="white">
                        <use xlink:href="#path-1"></use>
                    </mask>
                    <use id="Combined-Shape" fill="#2C2C2C" fill-rule="nonzero" xlink:href="#path-1"></use>
                </g>
                <path d="M39.75,6 C52.5906204,6 63,16.4093796 63,29.25 C63,42.0906204 52.5906204,52.5 39.75,52.5 C26.9093796,52.5 16.5,42.0906204 16.5,29.25 C16.5,16.4093796 26.9093796,6 39.75,6 Z M40,15 C32.28,15 26,21.28 26,29 C26,36.72 32.28,43 40,43 C47.72,43 54,36.72 54,29 C54,21.28 47.72,15 40,15 Z M39.001,17.049 L39.001,19 L41.001,19 L41.001,17.051 L41.4029637,17.0912442 C43.6696097,17.3565647 45.7432379,18.2520475 47.4454934,19.6029192 L47.742,19.846 L46.366,21.222 L47.78,22.636 L49.156,21.26 L49.3871495,21.541361 C50.7444583,23.2454282 51.6443617,25.3249511 51.9106257,27.5979173 L51.951,28.001 L50,28.001 L50,30.001 L51.949,30 L51.9087558,30.4019637 C51.6434353,32.6686097 50.7479525,34.7422379 49.3970808,36.4444934 L49.154,36.741 L47.778,35.365 L46.364,36.779 L47.74,38.155 L47.458639,38.3861495 C45.7545718,39.7434583 43.6750489,40.6433617 41.4020827,40.9096257 L40.999,40.95 L40.999,39 L38.999,39 L38.999,40.949 L38.5970363,40.9087558 C36.3303903,40.6434353 34.2567621,39.7479525 32.5545066,38.3970808 L32.258,38.154 L33.634,36.778 L32.22,35.364 L30.844,36.74 L30.6128505,36.458639 C29.2555417,34.7545718 28.3556383,32.6750489 28.0893743,30.4020827 L28.049,29.999 L30,29.999 L30,27.999 L28.051,27.999 L28.0912442,27.5970363 C28.3565647,25.3303903 29.2520475,23.2567621 30.6029192,21.5545066 L30.846,21.258 L32.222,22.634 L33.636,21.22 L32.26,19.844 L32.541361,19.6128505 C34.3456675,18.1757 36.5709,17.25135 39.001,17.049 Z M35.4616,23 L34,24.4527 L37.1092,27.543 C36.9149,27.9447 36.7981,28.3885 36.7981,28.8632 C36.7981,30.2008 37.6653,31.3309 38.8654,31.7562 L38.8654,34 L40.9327,34 L40.9327,31.7562 C42.1328,31.3309 43,30.2008 43,28.8632 C43,27.1639 41.6087,25.7811 39.899,25.7811 C39.4215,25.7811 38.975,25.8972 38.5708,26.0903 L35.4616,23 Z M39.899,27.8358 C40.4686,27.8358 40.9327,28.2971 40.9327,28.8632 C40.9327,29.4293 40.4686,29.8905 39.899,29.8905 C39.3295,29.8905 38.8654,29.4293 38.8654,28.8632 C38.8654,28.2971 39.3295,27.8358 39.899,27.8358 Z" id="Combined-Shape" fill="#2C2C2C" fill-rule="nonzero"></path>
                <path d="M42.8187629,0.750227411 L43.9126629,0.865127411 C44.818947,0.960320799 45.476466,1.77217874 45.3812726,2.67846288 C45.2910894,3.53704785 44.5576948,4.17236435 43.7101592,4.15592137 L43.5679371,4.14707259 L42.4740371,4.03217259 C41.567753,3.9369792 40.910234,3.12512126 41.0054274,2.21883712 C41.0956106,1.36025215 41.8290052,0.724935645 42.6765408,0.741378631 L42.8187629,0.750227411 Z" id="Path" fill="#2C2C2C" fill-rule="nonzero"></path>
                <path d="M36.1807043,0.775441362 C37.0869808,0.680174644 37.8988919,1.33762792 37.9941586,2.24390435 C38.0844113,3.10248202 37.4990926,3.87636619 36.6666507,4.03645175 L36.5256957,4.05735864 L35.4316957,4.17235864 C34.5254192,4.26762536 33.7135081,3.61017208 33.6182414,2.70389565 C33.5279887,1.84531798 34.1133074,1.07143381 34.9457493,0.911348245 L35.0867043,0.890441362 L36.1807043,0.775441362 Z" id="Path" fill="#2C2C2C" fill-rule="nonzero"></path>
            </g>
        </g>
    </g>
</svg>

<svg width="86" height="70" xmlns="http://www.w3.org/2000/svg" xmlns:xlink="http://www.w3.org/1999/xlink"><defs><path d="M36.172.165a2 2 0 0 0 .16 3.392c-3.36.389-6.63 1.456-9.606 3.158a25.351 25.351 0 0 0-10.8 12.236 25.464 25.464 0 0 0-1.125 16.306 25.386 25.386 0 0 0 9.014 13.613 25.233 25.233 0 0 0 15.418 5.275h40.035l-8.588-8.62a1.683 1.683 0 0 1-.363-1.834 1.684 1.684 0 0 1 .907-.91 1.668 1.668 0 0 1 1.823.363l11.434 11.509c.177.153.302.338.388.543a1.686 1.686 0 0 1-.377 1.858L73.048 68.508a1.672 1.672 0 0 1-2.859-1.19 1.69 1.69 0 0 1 .491-1.191l8.588-8.62H39.233a28.581 28.581 0 0 1-17.467-5.97A28.76 28.76 0 0 1 11.55 36.114a28.852 28.852 0 0 1 1.274-18.478A28.72 28.72 0 0 1 25.058 3.772 28.575 28.575 0 0 1 35.677.224Zm-17.11 53.98c.444 0 .87.177 1.183.492a1.686 1.686 0 0 1-1.017 2.863l-.165.008H1.673a1.67 1.67 0 0 1-1.182-.492 1.685 1.685 0 0 1 1.017-2.863l.166-.008h17.389ZM43.179.272a28.61 28.61 0 0 1 16.487 8.316 28.84 28.84 0 0 1 4.233 34.809c-.235.394-.477.78-.732 1.167a1.677 1.677 0 0 1-1.72.75 1.67 1.67 0 0 1-1.081-.714 1.685 1.685 0 0 1 .01-1.891c.222-.335.437-.676.645-1.027a25.454 25.454 0 0 0 3.333-15.998 25.416 25.416 0 0 0-7.077-14.721 25.258 25.258 0 0 0-15.27-7.427A2 2 0 0 0 41.623.1c.518.043 1.037.1 1.555.172Z" id="a"/></defs><g fill="none" fill-rule="evenodd"><use fill="#2C2C2C" fill-rule="nonzero" xlink:href="#a" transform="translate(.5 .5)"/><path d="M39.75 6C52.59 6 63 16.41 63 29.25S52.59 52.5 39.75 52.5 16.5 42.09 16.5 29.25 26.91 6 39.75 6Zm.25 9c-7.72 0-14 6.28-14 14s6.28 14 14 14 14-6.28 14-14-6.28-14-14-14Zm-.999 2.049V19h2v-1.949l.402.04c2.267.266 4.34 1.161 6.042 2.512l.297.243-1.376 1.376 1.414 1.414 1.376-1.376.231.281a11.934 11.934 0 0 1 2.524 6.057l.04.403H50v2L51.949 30l-.04.402a11.936 11.936 0 0 1-2.512 6.042l-.243.297-1.376-1.376-1.414 1.414 1.376 1.376-.281.231a11.934 11.934 0 0 1-6.057 2.524l-.403.04V39h-2v1.949l-.402-.04a11.936 11.936 0 0 1-6.042-2.512l-.297-.243 1.376-1.376-1.414-1.414-1.376 1.376-.231-.281a11.934 11.934 0 0 1-2.524-6.057L28.05 30H30v-2h-1.949l.04-.402a11.936 11.936 0 0 1 2.512-6.042l.243-.297 1.376 1.376 1.414-1.414-1.376-1.376.281-.231a11.935 11.935 0 0 1 6.46-2.564ZM35.461 23 34 24.453l3.11 3.09a3.017 3.017 0 0 0-.312 1.32c0 1.338.867 2.468 2.067 2.893V34h2.068v-2.244c1.2-.425 2.067-1.555 2.067-2.893 0-1.7-1.391-3.082-3.101-3.082-.477 0-.924.116-1.328.31L35.46 23Zm4.438 4.836c.57 0 1.034.461 1.034 1.027 0 .566-.464 1.027-1.034 1.027-.57 0-1.034-.46-1.034-1.027 0-.566.465-1.027 1.034-1.027ZM42.819.75l1.094.115a1.65 1.65 0 0 1-.203 3.29l-.142-.008-1.094-.115a1.65 1.65 0 0 1 .203-3.29l.142.008ZM36.18.775a1.65 1.65 0 0 1 .487 3.261l-.141.021-1.094.115a1.65 1.65 0 0 1-.486-3.26l.14-.022 1.095-.115Z" fill="#2C2C2C" fill-rule="nonzero"/></g></svg>
